!!!COM:	Bach, Johann Sebastian
!!!OMV:	O Haupt voll Blut und Wunden
!!!OTL:	O Haupt voll Blut und Wunden
**kern	**fb	**kern	**kern	**kern
*part4	*part4	*part3	*part2	*part1
*staff4	*	*staff3	*staff2	*staff1
*I"Voice	*	*I"Voice	*I"Voice	*I"Voice
*I'V	*	*I'V	*I'V	*I'V
*clefF4	*	*clefGv2	*clefG2	*clefG2
*k[]	*	*k[]	*k[]	*k[]
*M4/4	*	*M4/4	*M4/4	*M4/4
8AL	.	4A	4c	4e
8GJ	.	.	.	.
=2	=2	=2	=2	=2
4F	.	8AL	8cL	4a
.	.	8BJ	8dJ	.
4E	6	4c	4e	4g
4D	7	4d	8AL	4f
.	6	.	8BJ	.
4C	.	4G	4c	4e
=3	=3	=3	=3	=3
4FF#X	6 5	4A	4c	2d
4GG	.	4G	4B	.
4C;	.	4G;	4c;	4e;
4GG#X	6	4B	4e	4b
=4	=4	=4	=4	=4
4AA	.	4A	4e	4cc
4D	6 5	4A	4fn	8b
.	.	.	.	16ccLL
.	.	.	.	16ddJJ
4E	6 4	4A	4e	4cc
4E	#r5	4G#X	8dL	8bL
.	.	.	8cJ	8aJ
=	=	=	=	=
2.AA;	.	2.E;	2.c;	2.a;
=5:|!	=5:|!	=5:|!	=5:|!	=5:|!
4A	.	8AL	4e	4cc
.	.	8GJ	.	.
=6	=6	=6	=6	=6
4D#X	6	4F#X	4f#X	8bL
.	5	.	.	8aJ
4E	.	4B	4e	4g
4E-X	6 4 2	4c	4fn	4a
4Dn	6	4d	4f	4b
=7	=7	=7	=7	=7
!!linebreak:original
4E	6 -r5	8c	4g	2cc
.	.	4B-X	.	.
4Fn	.	.	4f	.
.	.	8A-X	.	.
4C;	.	4G;	4e;	4cc;
4C	.	8cL	4e	4g
.	.	8B-J	.	.
=8	=8	=8	=8	=8
4F	7	4An	8eL	4a
.	6	.	8dJ	.
8EL	#6\ -r5	4B-X	8c#XL	4g
8DJ	.	.	8dJ	.
4C#X	6	4A	4e	8aL
.	5	.	.	8gJ
4D	.	4A	8eL	4f
.	.	.	8dJ	.
=9	=9	=9	=9	=9
2.AA;	4	2.A;	4d	2.e;
.	#	.	2c#X;	.
4F#X	6 nr5	4d	4a	4cc
=10	=10	=10	=10	=10
8GL	.	4d	4g	8bL
8AJ	.	.	.	8ccJ
4B	6	8d	4g	4dd
.	.	16eLL	.	.
.	.	16fJJ	.	.
8EL	6	4e	8gL	4cc
8F#XJ	6 5	.	8aJ	.
4G	.	4d	8bL	4b
.	.	.	8gJ	.
=11	=11	=11	=11	=11
4C#X	6 5	4e	4g	2a
4D	.	4d	4f#X	.
4GG;	.	4d;	4g;	4b;
4Cn	.	4G	4c	4e
=12	=12	=12	=12	=12
!!pagebreak:original
4BB	6 5	4G	4d	4fn
4C	.	4G	4c	4e
8BB-XL	6	8GL	4d	4d
8AAJ	.	8AJ	.	.
4GG	8 -	4B-X	8eL	8gL
.	7	.	8dJ	8fJ
=13	=13	=13	=13	=13
4GG#X	6 5	4B	4d	2.e;
4AA	.	4A	4c	.
4E;	#	4G#X;	4B;	.
=||	=||	=||	=||	=||
*-	*-	*-	*-	*-
!!!system-decoration: s1,s2,s3,s4
